vendor/craftcms/cms/src/icons/solid/table-tree.svg

<svg xmlns="http://www.w3.org/2000/svg" viewBox="0 0 512 512"><!--! Font Awesome Pro 6.7.2 by @fontawesome - https://fontawesome.com License - https://fontawesome.com/license (Commercial License) Copyright 2024 Fonticons, Inc. --><path d="M64 32C28.7 32 0 60.7 0 96L0 416c0 35.3 28.7 64 64 64l384 0c35.3 0 64-28.7 64-64l0-320c0-35.3-28.7-64-64-64L64 32zM448 160l0 256L64 416l0-256 32 0 0 64 0 96c0 26.5 21.5 48 48 48l96 0c8.8 0 16-7.2 16-16s-7.2-16-16-16l-96 0c-8.8 0-16-7.2-16-16l0-50.7c5 1.8 10.4 2.7 16 2.7l32 0c8.8 0 16-7.2 16-16s-7.2-16-16-16l-32 0c-8.8 0-16-7.2-16-16l0-64 320 0zM224 240l0 32c0 8.8 7.2 16 16 16l160 0c8.8 0 16-7.2 16-16l0-32c0-8.8-7.2-16-16-16l-160 0c-8.8 0-16 7.2-16 16zm80 80c-8.8 0-16 7.2-16 16l0 32c0 8.8 7.2 16 16 16l96 0c8.8 0 16-7.2 16-16l0-32c0-8.8-7.2-16-16-16l-96 0z"/></svg>

<svg xmlns="http://www.w3.org/2000/svg" viewBox="0 0 512 512"><!--! Font Awesome Pro 6.5.1 by @fontawesome - https://fontawesome.com License - https://fontawesome.com/license (Commercial License) Copyright 2023 Fonticons, Inc. --><path d="M64 32C28.7 32 0 60.7 0 96V416c0 35.3 28.7 64 64 64H448c35.3 0 64-28.7 64-64V96c0-35.3-28.7-64-64-64H64zM448 160V416H64V160H96v64 96c0 26.5 21.5 48 48 48h96c8.8 0 16-7.2 16-16s-7.2-16-16-16H144c-8.8 0-16-7.2-16-16V269.3c5 1.8 10.4 2.7 16 2.7h32c8.8 0 16-7.2 16-16s-7.2-16-16-16H144c-8.8 0-16-7.2-16-16V160H448zM224 240v32c0 8.8 7.2 16 16 16H400c8.8 0 16-7.2 16-16V240c0-8.8-7.2-16-16-16H240c-8.8 0-16 7.2-16 16zm80 80c-8.8 0-16 7.2-16 16v32c0 8.8 7.2 16 16 16h96c8.8 0 16-7.2 16-16V336c0-8.8-7.2-16-16-16H304z"/></svg>
